icons/timer-flash-line.svg

<svg viewBox="0 0 24 24" fill="currentColor" xmlns="http://www.w3.org/2000/svg">
    <path d="M6.38231 5.9681C7.92199 4.73647 9.87499 4 12 4C14.125 4 16.078 4.73647 17.6177 5.9681L19.0711 4.51472L20.4853 5.92893L19.0319 7.38231C20.2635 8.92199 21 10.875 21 13C21 17.9706 16.9706 22 12 22C7.02944 22 3 17.9706 3 13C3 10.875 3.73647 8.92199 4.9681 7.38231L3.51472 5.92893L4.92893 4.51472L6.38231 5.9681ZM12 20C15.866 20 19 16.866 19 13C19 9.13401 15.866 6 12 6C8.13401 6 5 9.13401 5 13C5 16.866 8.13401 20 12 20ZM13 12H16L11 18.5V14H8L13 7.4952V12ZM8 1H16V3H8V1Z"/>
</svg>

<svg xmlns="http://www.w3.org/2000/svg" viewBox="0 0 24 24">
    <g>
        <path fill="none" d="M0 0h24v24H0z"/>
        <path d="M6.382 5.968A8.962 8.962 0 0 1 12 4c2.125 0 4.078.736 5.618 1.968l1.453-1.453 1.414 1.414-1.453 1.453a9 9 0 1 1-14.064 0L3.515 5.93l1.414-1.414 1.453 1.453zM12 20a7 7 0 1 0 0-14 7 7 0 0 0 0 14zm1-8h3l-5 6.5V14H8l5-6.505V12zM8 1h8v2H8V1z"/>
    </g>
</svg>
